X:123
T:Fife Hunt,The. RHu.123
S:R.Hughes MS,1823,Whitchurch,Shrops.
A:Whitchurch, Shropshire
Z:Tony Weatherall 2006
M:C
L:1/8
Q:1/2=100
R:Reel
K:C
(f|ec) c2 GE E2|Dd2^cd2df|ec c2GE E2|Cc2Bc2-c:|
f|ecgc acgc|Dd2^cd2-df|ecgc acgc|Gc2Bc2-cf|
ecgc acgc|Dd2^cd2-df|egcg fadf|Gc2Bc2-c|]

